X:1
T:Title
L:1/8
M:6/8
K:Bb
V:1 treble nm="Grand Piano"
V:1
 z3 z2[Q:1/4=100] C | D2 E D2 A | ^F2 E D2 A | ^F2 E D2 C | D3- D2 D | ^F2 G A2 B | c2 d A2 d | %7
 c2 B A2 G | d3- d2 d | B2 A G3 | d3 c2 c | A2 ^F D3 | c3 B2 B | A2 G A3 | ^F3 G3 | E3 ^F3- | %16
 F3- F2 D | D2 E C3 | E3 D2 D | D2 E C3 | E3 D2 A | ^F2 E C3 | E3 D3- | D6 |] %24

